X:96
T:AVANT DEUX DE PLEBOULLE 3
Z: Yves BELOTTEAU
M:4/4
L:1/4
Q:1/4=60
K:C
|G/2A/2B/2cc/2c/2B/2 A<Gff/2e|e/2d/2c/2d/2ec/2G/2 A/2B/2cc/2c/2B/2A/2|G3
/2ff/2e e/2d/2c/2d/2ec/2|c3/2ff/2e e/2d/2c/2d/2ec/2f|
f/2ee/2d/2c/2 d<cff/2ee/2|d/2c/2d/2ec/2f f/2ee/2d/2c/2d/2|c3/2ccGGc2|e2c
2 d3/2c/2BG|
ABcc GGc2|e2c2 d3/2c/2BG|ABcc d3/2c/2BG|ABcc d3/2c/2BG|
ABc2 d3/2c/2BG|ABcc d3/2c/2BG|ABc2 cc|
